logos/stigg.svg

<?xml version="1.0" encoding="UTF-8"?>
<svg width="512px" height="151px" viewBox="0 0 512 151" version="1.1" xmlns="http://www.w3.org/2000/svg" preserveAspectRatio="xMidYMid">
    <title>stigg</title>
    <defs>
        <radialGradient cx="-100.1136%" cy="-37.2%" fx="-100.1136%" fy="-37.2%" r="279.1152%" gradientTransform="translate(-1.001136,-0.372000),scale(1.000000,0.667824),translate(1.001136,0.372000)" id="stiggRadialGradient-1">
            <stop stop-color="#FFBE6E" offset="0%"></stop>
            <stop stop-color="#FA9B68" offset="31.3%"></stop>
            <stop stop-color="#F0465A" offset="100%"></stop>
        </radialGradient>
        <radialGradient cx="98.1828%" cy="107.6%" fx="98.1828%" fy="107.6%" r="331.87906%" gradientTransform="translate(0.981828,1.076000),scale(0.645755,1.000000),translate(-0.981828,-1.076000)" id="stiggRadialGradient-2">
            <stop stop-color="#FFBE6E" offset="0%"></stop>
            <stop stop-color="#FBAB69" offset="28.2%"></stop>
            <stop stop-color="#F27B5D" offset="84.8%"></stop>
            <stop stop-color="#F06E5A" offset="100%"></stop>
        </radialGradient>
        <linearGradient x1="-4.9%" y1="-41.5%" x2="77.9%" y2="102%" id="linearGradient-3">
            <stop stop-color="#003EE2" offset="0%"></stop>
            <stop stop-color="#1458E6" offset="10.8%"></stop>
            <stop stop-color="#2C77EC" offset="25.9%"></stop>
            <stop stop-color="#3F8EF0" offset="41.8%"></stop>
            <stop stop-color="#4C9FF3" offset="58.7%"></stop>
            <stop stop-color="#54A9F5" offset="77.1%"></stop>
            <stop stop-color="#57ADF6" offset="100%"></stop>
        </linearGradient>
        <linearGradient x1="125.2%" y1="50%" x2="-45.7%" y2="50%" id="linearGradient-4">
            <stop stop-color="#003EE2" offset="0%"></stop>
            <stop stop-color="#1E64E8" offset="26.8%"></stop>
            <stop stop-color="#3C8BF0" offset="58.8%"></stop>
            <stop stop-color="#4FA4F4" offset="84.4%"></stop>
            <stop stop-color="#57ADF6" offset="100%"></stop>
        </linearGradient>
    </defs>
    <g>
        <g>
            <path d="M127.550087,9.84496762 C117.563052,20.7305267 110.557432,28.734312 106.533228,33.8563234 C102.667327,38.7768456 97.8377886,45.8368608 92.0446126,55.0363689 L100.765488,96.9519082 C104.180796,97.3746715 117.334805,100.288881 121.064418,100.468168 C146.465629,101.69883 151.229257,92.7220621 151.986246,92.3856222 C152.130119,91.5688702 154.938949,76.0682881 147.712132,51.7118117 C143.299813,36.7576759 136.490683,22.6183959 127.550087,9.84496762 Z" fill="url(#stiggRadialGradient-1)"></path>
            <path d="M92.0357589,55.0363689 L127.541233,9.84496762 C113.015094,4.18126422 97.6663383,0.911627283 82.0930751,0.163467436 C56.7184254,-1.09375527 42.32234,5.30302926 41.5653503,5.63725572 C41.4170511,6.45179437 36.9671065,22.4155865 44.1740029,46.8052642 C45.2023467,50.2414079 47.9811296,53.1284608 49.248132,56.4839458 L92.0357589,55.0363689 Z" fill="url(#stiggRadialGradient-2)"></path>
            <path d="M41.5852711,5.63946914 L0.667984305,57.3117649 C0.517471728,58.1240902 -2.30242567,73.5781904 4.90447067,97.9678681 C8.08718886,108.630398 12.4355183,118.909617 17.8706865,128.619312 L57.0836397,73.8371605 C52.4306403,65.0504705 48.6583095,55.8250161 45.8217574,46.2955723 C38.6148611,21.9058946 41.4347585,6.45400779 41.5852711,5.63946914 Z" fill="url(#linearGradient-3)"></path>
            <path d="M151.984033,92.3900491 C151.229257,92.726489 136.881867,99.1254869 111.478442,97.8948253 C101.54358,97.394202 91.6826722,95.9113586 82.039953,93.4679847 L38.103561,144.516096 C48.8242785,147.499827 59.8414454,149.291731 70.9551444,149.859293 C96.3563552,151.089954 110.703745,144.69317 111.460735,144.35673 L151.984033,92.3900491 Z" fill="url(#linearGradient-4)"></path>
        </g>
        <path d="M243.625008,98.559958 C243.625008,113.073355 230.745115,122.042133 211.17848,122.042133 C201.82014,122.272329 192.543695,120.255903 184.128271,116.163289 C185.046841,110.713849 185.591342,105.209072 185.752922,99.6865889 C193.139105,103.940783 201.510261,106.194044 210.036356,106.225032 C219.819673,106.225032 224.866271,103.942996 224.866271,99.212917 C225.027851,94.4850514 221.44211,92.3645948 206.767134,89.5933926 C189.810121,86.1692315 182.30884,79.1571161 182.30884,66.7663895 C182.30884,52.7421588 195.190946,43.6118003 214.757581,43.6118003 C222.925102,43.52105 231.028433,45.0438832 238.609398,48.0895494 L235.333536,63.8313943 C228.868135,60.8986124 221.847166,59.3979135 214.748727,59.4289014 C205.618369,59.4289014 201.054296,61.7109377 201.054296,66.1134306 C201.054296,70.0267576 204.153084,71.6469812 218.500475,74.5930435 C236.776686,78.5041571 243.625008,85.5162725 243.625008,98.559958 Z M286.565361,104.757535 C279.230086,104.757535 273.357882,100.844208 273.357882,90.5695109 L273.357882,61.8725174 L291.950612,61.8725174 L295.410188,45.2408776 L273.351242,45.2408776 L273.351242,21.5572809 C267.009793,23.3479379 260.511191,24.5144103 253.943973,25.0434178 L253.784607,93.8431595 C253.784607,112.595256 265.035422,122.054183 281.828641,122.054183 C285.184186,122.075335 288.533091,121.723401 291.811167,121.004039 L295.474377,103.405135 C292.596931,104.352479 289.582253,104.810657 286.554294,104.757535 L286.565361,104.757535 Z M307.800915,120.990759 L327.36755,120.990759 L327.36755,45.2386642 L307.803128,45.2386642 L307.800915,120.990759 Z M317.663915,14.2352867 C309.230784,14.005091 303.710514,22.9915772 307.730085,30.4087485 C309.6292,33.9148062 313.28577,36.1127325 317.274353,36.1481472 C323.350192,36.458026 328.436632,31.5951417 328.40343,25.5126629 C328.711096,19.3682083 323.80837,14.2220062 317.657275,14.2352867 L317.663915,14.2352867 Z M420.908903,45.2386642 L420.908903,109.157814 C420.908903,133.284095 404.604849,149.922375 377.045554,149.922375 C367.171486,149.922375 356.217269,147.737729 348.875354,143.534444 C352.85287,139.552501 356.445252,135.207557 359.608229,130.554948 C364.590638,132.257068 369.823164,133.124729 375.091104,133.124729 C392.537282,133.124729 401.342268,123.502991 401.342268,111.273844 L401.342268,108.828015 C394.843666,116.340363 385.34588,120.581276 375.416476,120.406416 C354.87151,120.406416 339.379781,105.078481 339.379781,82.4130573 C339.379781,60.0752201 356.336794,43.60516 377.045554,43.60516 C387.039146,43.2333054 396.674165,47.3635476 403.301145,54.8559752 L403.95189,45.2364507 L420.908903,45.2386642 Z M401.506061,82.4241244 C401.568037,66.2927176 384.146206,56.1419723 370.144109,64.1545536 C356.144226,72.1649215 356.064543,92.3269666 370.002451,100.448006 C373.229617,102.327199 376.899468,103.309958 380.633508,103.296677 C392.253964,103.518019 401.734043,94.0379405 401.510488,82.4174841 L401.506061,82.4241244 Z M512,45.2386642 L512,109.157814 C512,133.284095 495.693733,149.922375 468.136651,149.922375 C458.26037,149.922375 447.308366,147.737729 439.964238,143.534444 C443.941754,139.552501 447.534135,135.207557 450.697113,130.554948 C455.679522,132.259281 460.909834,133.129156 466.177774,133.129156 C483.626166,133.129156 492.431152,123.507418 492.431152,111.278271 L492.431152,108.832441 C485.93255,116.34479 476.434763,120.585703 466.50536,120.410843 C445.960393,120.410843 430.468665,105.082908 430.468665,82.4174841 C430.468665,60.079647 447.427891,43.6095869 468.136651,43.6095869 C478.130243,43.2399457 487.763048,47.3679744 494.390028,54.860402 L495.054055,45.2408776 L512,45.2386642 Z M492.594945,82.4241244 C492.654707,66.294931 475.232876,56.1463992 461.235207,64.1589805 C447.235323,72.1693484 447.160067,92.3313934 461.097974,100.448006 C464.322928,102.327199 467.990565,103.309958 471.724605,103.296677 C483.345061,103.518019 492.82514,94.0379405 492.599371,82.4174841 L492.594945,82.4241244 Z" fill="#001E6C"></path>
    </g>
</svg>

<svg preserveAspectRatio="xMidYMid" viewBox="0 0 512 151" xmlns="http://www.w3.org/2000/svg">
  <defs>
    <radialGradient id="stigg_svg__a" cx="-100.114%" cy="-37.2%" r="279.115%" fx="-100.114%" fy="-37.2%" gradientTransform="matrix(1 0 0 .66782 0 -.124)">
      <stop offset="0%" stop-color="#FFBE6E"/>
      <stop offset="31.3%" stop-color="#FA9B68"/>
      <stop offset="100%" stop-color="#F0465A"/>
    </radialGradient>
    <radialGradient id="stigg_svg__b" cx="98.183%" cy="107.6%" r="331.879%" fx="98.183%" fy="107.6%" gradientTransform="matrix(.64575 0 0 1 .348 0)">
      <stop offset="0%" stop-color="#FFBE6E"/>
      <stop offset="28.2%" stop-color="#FBAB69"/>
      <stop offset="84.8%" stop-color="#F27B5D"/>
      <stop offset="100%" stop-color="#F06E5A"/>
    </radialGradient>
    <linearGradient id="stigg_svg__c" x1="-4.9%" x2="77.9%" y1="-41.5%" y2="102%">
      <stop offset="0%" stop-color="#003EE2"/>
      <stop offset="10.8%" stop-color="#1458E6"/>
      <stop offset="25.9%" stop-color="#2C77EC"/>
      <stop offset="41.8%" stop-color="#3F8EF0"/>
      <stop offset="58.7%" stop-color="#4C9FF3"/>
      <stop offset="77.1%" stop-color="#54A9F5"/>
      <stop offset="100%" stop-color="#57ADF6"/>
    </linearGradient>
    <linearGradient id="stigg_svg__d" x1="125.2%" x2="-45.7%" y1="50%" y2="50%">
      <stop offset="0%" stop-color="#003EE2"/>
      <stop offset="26.8%" stop-color="#1E64E8"/>
      <stop offset="58.8%" stop-color="#3C8BF0"/>
      <stop offset="84.4%" stop-color="#4FA4F4"/>
      <stop offset="100%" stop-color="#57ADF6"/>
    </linearGradient>
  </defs>
  <path fill="url(#stigg_svg__a)" d="M127.55 9.845c-9.987 10.886-16.993 18.89-21.017 24.011-3.866 4.92-8.695 11.98-14.488 21.18l8.72 41.916c3.416.423 16.57 3.337 20.3 3.516 25.4 1.23 30.164-7.746 30.921-8.082.144-.817 2.953-16.318-4.274-40.674A144.153 144.153 0 0 0 127.55 9.845Z"/>
  <path fill="url(#stigg_svg__b)" d="M92.036 55.036 127.54 9.845A144.153 144.153 0 0 0 82.093.163c-25.375-1.257-39.77 5.14-40.528 5.474-.148.815-4.598 16.779 2.609 41.168 1.028 3.436 3.807 6.323 5.074 9.679l42.788-1.448Z"/>
  <path fill="url(#stigg_svg__c)" d="M41.585 5.64.668 57.311c-.15.812-2.97 16.266 4.236 40.656a151.422 151.422 0 0 0 12.967 30.651l39.213-54.782a150.754 150.754 0 0 1-11.262-27.541c-7.207-24.39-4.387-39.842-4.237-40.657Z"/>
  <path fill="url(#stigg_svg__d)" d="M151.984 92.39c-.755.336-15.102 6.735-40.506 5.505a150.734 150.734 0 0 1-29.438-4.427l-43.936 51.048a151.305 151.305 0 0 0 32.851 5.343c25.401 1.231 39.749-5.166 40.506-5.502l40.523-51.967Z"/>
  <path fill="#001E6C" d="M243.625 98.56c0 14.513-12.88 23.482-32.447 23.482a58.56 58.56 0 0 1-27.05-5.879 120.291 120.291 0 0 0 1.625-16.476 49.013 49.013 0 0 0 24.283 6.538c9.784 0 14.83-2.282 14.83-7.012.162-4.728-3.424-6.848-18.099-9.62-16.957-3.424-24.458-10.436-24.458-22.827 0-14.024 12.882-23.154 32.449-23.154a62.125 62.125 0 0 1 23.851 4.478l-3.275 15.741a49.306 49.306 0 0 0-20.585-4.402c-9.13 0-13.695 2.282-13.695 6.684 0 3.914 3.1 5.534 17.446 8.48 18.277 3.911 25.125 10.923 25.125 23.967Zm42.94 6.198c-7.335 0-13.207-3.914-13.207-14.188V61.873h18.593l3.46-16.632h-22.06V21.557a101.356 101.356 0 0 1-19.407 3.486l-.16 68.8c0 18.752 11.251 28.211 28.045 28.211 3.355.021 6.704-.33 9.982-1.05l3.663-17.599a27.008 27.008 0 0 1-8.92 1.353h.011Zm21.236 16.233h19.567V45.239h-19.565l-.002 75.752Zm9.863-106.756c-8.433-.23-13.953 8.757-9.934 16.174a10.965 10.965 0 0 0 9.544 5.74c6.076.309 11.163-4.554 11.13-10.636.307-6.145-4.596-11.291-10.747-11.278h.007ZM420.909 45.24v63.919c0 24.126-16.304 40.764-43.863 40.764-9.875 0-20.829-2.184-28.17-6.388a89.813 89.813 0 0 0 10.732-12.98 47.897 47.897 0 0 0 15.483 2.57c17.446 0 26.251-9.621 26.251-21.85v-2.446a33.502 33.502 0 0 1-25.926 11.578c-20.544 0-36.036-15.328-36.036-37.993 0-22.338 16.957-38.808 37.666-38.808a33.397 33.397 0 0 1 26.254 11.25l.65-9.62 16.958.003Zm-19.403 37.185c.062-16.131-17.36-26.282-31.362-18.27-14 8.01-14.08 28.173-.142 36.294a20.977 20.977 0 0 0 10.632 2.849c11.62.221 21.1-9.26 20.876-20.88l-.004.007ZM512 45.24v63.919c0 24.126-16.306 40.764-43.863 40.764-9.877 0-20.829-2.184-28.173-6.388a89.813 89.813 0 0 0 10.733-12.98 47.829 47.829 0 0 0 15.48 2.575c17.45 0 26.254-9.622 26.254-21.85v-2.447a33.502 33.502 0 0 1-25.926 11.579c-20.545 0-36.036-15.328-36.036-37.994 0-22.337 16.959-38.807 37.668-38.807a33.4 33.4 0 0 1 26.253 11.25l.664-9.62L512 45.24Zm-19.405 37.185c.06-16.13-17.362-26.278-31.36-18.265-14 8.01-14.075 28.172-.137 36.289a20.955 20.955 0 0 0 10.627 2.849c11.62.221 21.1-9.26 20.874-20.88l-.004.007Z"/>
</svg>
